X:1
T:Dibdin's Plough Boy. JBut.038 (Harmony #40)
T:Dibdin's Plough Boy. JBut.038 (Harmony #40)
T:A Troop
C:A Troop
L:1/8
Q:1/2=60
M:2/2
K:G
V:1 treble 
V:1
 (G/A/) | B2 B>B B2 cB | BABc d2 ef | gdcB cBAG |"^NB1" TB3 c/B/ A2 GA | B2 B>B B2 cB | %6
 BABc d2 ef | geag fedc | d4 z2 AG | FAdf ged^c | d2 d>d d2 z2"^sic" c4 |{d} d2 ef gdcB | %12
 edcB .c2 cd | edcB cBAG | F2 A>F D2 d>d | g2 fe d2 (3(efg) | dedc B2 cd | e2 E>E A2 B>c | %18
 d2 D>D G2 A>B | cABc BGFG | FGAF D2 D>D | G>ABB G>ABB | BABc d2 D>D | G>ABB G>ABB | BABc d2 ef | %25
 g>eee f>ddd | fcBA d2 BB | cBAG Gedc | B2 A2{GA} G4 |] %29

